X:24
T:Schottis av Thore H\"ardelin d.y.
R:schottis
C:Thore H\"ardelin d.y.
Z:id:hn-schottis-24
M:C|
K:D
AG|F2D2 DFAF|E2A,2 A,2ed|c2AA Acec|dcdf A2AG|
F2D2 DFAF|E2A,2 A,2ed|c2AA Acec|1 d2f2 d2:|2 d2f2 defg||
|:a2ab agf2|g2ga gfe2|A2Ac eAce|dcde fefg|
a2ab agf2|g2ga gfe2|A2Ac eAce|1 d2f2 defg:|2 d2f2 d2||
